gama.ui.shared/icons_svg/dark/display/toggle.antialias.svg

<svg height="25" viewBox="-597.831 -3314.16 25 25" width="25" xmlns="http://www.w3.org/2000/svg"><g fill="none"><path d="m-593.4905-3313.6597h16.31996c2.12078 0 3.84001 1.7192 3.84001 3.84v16.32c0 2.1207-1.71923 3.84-3.84001 3.84h-16.31996c-2.1208 0-3.84-1.7193-3.84-3.84v-16.32c0-2.1208 1.7192-3.84 3.84-3.84z" fill="#666"/><path d="m-593.4905-3313.6597h16.31996c2.12078 0 3.84001 1.7192 3.84001 3.84v16.32c0 2.1207-1.71923 3.84-3.84001 3.84h-16.31996c-2.1208 0-3.84-1.7193-3.84-3.84v-16.32c0-2.1208 1.7192-3.84 3.84-3.84z" stroke="#fff" stroke-linecap="round" stroke-linejoin="round" stroke-width=".25"/><path d="m-585.1499-3301.6597v-6.4446c3.5593 0 6.4446 2.8853 6.4446 6.4446 0 3.5592-2.8853 6.4447-6.4446 6.4447z" fill="#e3e6e1"/><g stroke="#e3e6e1"><path d="m-585.1499-3301.6597v-6.4446c3.5593 0 6.4446 2.8853 6.4446 6.4446 0 3.5592-2.8853 6.4447-6.4446 6.4447z" stroke-linecap="round" stroke-linejoin="round" stroke-width=".5"/><path d="m-585.5112-3301.6597v6.4447c-3.55924 0-6.4446-2.8855-6.4446-6.4447 0-3.5593 2.88536-6.4446 6.4446-6.4446z" stroke-linejoin="bevel"/><path d="m-585.1194-3309.6597v16" stroke-linecap="round" stroke-linejoin="round" stroke-width=".5"/></g></g></svg>

<?xml version="1.0" encoding="UTF-8" standalone="no"?>
<!DOCTYPE svg PUBLIC "-//W3C//DTD SVG 1.1//EN" "http://www.w3.org/Graphics/SVG/1.1/DTD/svg11.dtd">
<svg xmlns="http://www.w3.org/2000/svg" xmlns:xl="http://www.w3.org/1999/xlink" version="1.1" xmlns:dc="http://purl.org/dc/elements/1.1/" viewBox="-597.8305 -3314.1597 25 25" width="25" height="25">
  <defs/>
  <g id="SOURCES" stroke-opacity="1" fill="none" stroke="none" fill-opacity="1" stroke-dasharray="none">
    <title>SOURCES</title>
    <g id="SOURCES_Dark">
      <title>Dark</title>
      <g id="Graphic_10943">
        <path d="M -593.4905 -3313.6597 L -577.17054 -3313.6597 C -575.04976 -3313.6597 -573.33053 -3311.9405 -573.33053 -3309.8197 L -573.33053 -3293.4997 C -573.33053 -3291.379 -575.04976 -3289.6597 -577.17054 -3289.6597 L -593.4905 -3289.6597 C -595.6113 -3289.6597 -597.3305 -3291.379 -597.3305 -3293.4997 L -597.3305 -3309.8197 C -597.3305 -3311.9405 -595.6113 -3313.6597 -593.4905 -3313.6597 Z" fill="#666"/>
        <path d="M -593.4905 -3313.6597 L -577.17054 -3313.6597 C -575.04976 -3313.6597 -573.33053 -3311.9405 -573.33053 -3309.8197 L -573.33053 -3293.4997 C -573.33053 -3291.379 -575.04976 -3289.6597 -577.17054 -3289.6597 L -593.4905 -3289.6597 C -595.6113 -3289.6597 -597.3305 -3291.379 -597.3305 -3293.4997 L -597.3305 -3309.8197 C -597.3305 -3311.9405 -595.6113 -3313.6597 -593.4905 -3313.6597 Z" stroke="white" stroke-linecap="round" stroke-linejoin="round" stroke-width=".25"/>
      </g>
      <g id="Graphic_10942">
        <path d="M -585.1499 -3301.6597 L -585.1499 -3308.1043 C -581.5906 -3308.1043 -578.7053 -3305.219 -578.7053 -3301.6597 C -578.7053 -3298.1005 -581.5906 -3295.215 -585.1499 -3295.215 L -585.1499 -3301.6597 Z" fill="#e3e6e1"/>
        <path d="M -585.1499 -3301.6597 L -585.1499 -3308.1043 C -581.5906 -3308.1043 -578.7053 -3305.219 -578.7053 -3301.6597 C -578.7053 -3298.1005 -581.5906 -3295.215 -585.1499 -3295.215 L -585.1499 -3301.6597 Z" stroke="#e3e6e1" stroke-linecap="round" stroke-linejoin="round" stroke-width=".5"/>
      </g>
      <g id="Graphic_10941">
        <path d="M -585.5112 -3301.6597 L -585.5112 -3295.215 C -589.07044 -3295.215 -591.9558 -3298.1005 -591.9558 -3301.6597 C -591.9558 -3305.219 -589.07044 -3308.1043 -585.5112 -3308.1043 L -585.5112 -3301.6597 Z" stroke="#e3e6e1" stroke-linecap="butt" stroke-linejoin="bevel" stroke-width="1"/>
      </g>
      <g id="Line_10939">
        <line x1="-585.1194" y1="-3309.6597" x2="-585.1194" y2="-3293.6597" stroke="#e3e6e1" stroke-linecap="round" stroke-linejoin="round" stroke-width=".5"/>
      </g>
    </g>
  </g>
</svg>
